X:1
T:Nowel
T:Nowel
T:Walter Maristow
T:Walter Maristow, before 1917
T:Public Domain Courtesy of the Cyber Hymnal™
T:Public Domain Courtesy of the Cyber Hymnal™
C:Walter Maristow
Z:Public Domain
Z:Courtesy of the Cyber Hymnal™
%%score ( 1 2 ) ( 3 4 )
L:1/8
Q:1/4=150
M:3/4
K:Bb
V:1 treble 
V:2 treble 
V:3 bass 
V:4 bass 
V:1
 [B,D]6- | [B,D]6 | [B,D]6 | [B,D]6- | [B,D]6 | [B,D]6 | [B,D]6- | [B,D]6 | [B,D]6 | %9
w: ~||~|~||~|~||~|
w: ~||~|~||~|~||~|
w: Now-||ell,|Now-||ell,|Now-||ell.|
w: ~||~|~||~|~||~|
w: ~||~|~||~|~||~|
[Q:1/4=130] [DF]6 | [DB]3 [Fc]3 | [DB]6 |[Q:1/4=120] [FB]2 [Fc]2 [Fd]2 | F4 [CE]2 | [B,D]6 | %15
w: 1.~Hail,|gen- tle|King!|Blest be Thy|man- ger|throne,|
w: 2.~Hail,|gra- cious|Lord!|Blest be the|kind- ly|night,|
w: 3.~Hail,|Prince of|Peace!|Blest be Thy|star a-|bove,|
w: 4.~Hail,|Light of|light!|Rise on our|dark- ened|hearts;|
w: 5.~Hail,|Lord of|life!|Blest be Thy|won- drous|love,|
 [FB]2 [Fc]2 [Fd]2 | F4 [CE]2 | D4 D2 | [DF]4 [CE]2 | [B,D]6 | [A,C]6 | [CF]2 [CG]2 [FA]2 | %22
w: Blest be this|sta- ble|mean, this|lodg- ing|low-|ly.|Blest be this|
w: Hush- ing in|slum- ber|pure the|world un-|ho-|ly.|Veil- ing in|
w: Tell- ing the|sleep- ing|earth the|hap- py|sto-|ry;|Blest the an-|
w: Let Thy bright|beams dis-|pel our|sin and|sad-|ness,|Bright- er and|
w: Blest be Thy|pi- tying|care for|sin- ners|friend-|less,|Blest be the|
 [FB]4 [FB]2 | [Gc]4 [Gc]2 | [Fd]4 [Fd]2 | !fermata![Ee]6 | [Fd]2 [Fc]2 [FB]2 | [EG]4 [EG]2 | %28
w: roy- al|ci- ty|Beth- le-|hem,|Blest be Thy|mo- ther|
w: dusk- y|shade the|land- scape|wide,|Hid- ing Thy|ca- bin|
w: gel- ic|choir, whose|e- choing|song|Wel- comes Thy|ris- ing|
w: bright- er|shin- ing|till the|day|Dawn in e-|ter- nal|
w: Fa- ther,|Son and|Ho- ly|Ghost,|Blest through the|ag- es|
 ([DG]6 | [FA]6) | [FB]6 |] %31
w: ho-||ly.|
w: low-||ly.|
w: glo-||ry.|
w: glad-||ness.|
w: end-||less.|
V:2
 x6 | x6 | x6 | x6 | x6 | x6 | x6 | x6 | x6 | x6 | x6 | x6 | x6 | F4 x2 | x6 | x6 | F4 x2 | D4 D2 | %18
 x6 | x6 | x6 | x6 | x6 | x6 | x6 | x6 | x6 | x6 | x6 | x6 | x6 |] %31
V:3
 G,2 F,2 E,2 | [B,,F,]6 | [B,,F,]6 | G,2 F,2 E,2 | [B,,F,]6 | [B,,F,]6 | G,2 F,2 E,2 | [B,,F,]6 | %8
 [B,,F,]6 | B,6 | [G,B,]3 [F,A,]3 | [B,,B,]6 | D2 [CE]2 [B,D]2 | [A,C]4 [F,A,]2 | B,6 | %15
 D2 [CE]2 [B,D]2 | [A,C]4 [F,A,]2 | [G,B,]4 [G,B,]2 | [C,G,]4 [E,G,]2 | F,6 | F,6 | %21
 [F,A,]2 [F,B,]2 [E,C]2 | [D,B,]4 [D,B,]2 | [E,B,]4 [E,B,]2 | [F,B,]4 [F,B,]2 | [G,B,]6 | %26
 [F,B,]2 [E,A,]2 [D,B,]2 | [E,B,]4 [C,C]2 | ([G,B,]6 | [F,C]6) | [B,,D]6 |] %31
V:4
 x6 | x6 | x6 | x6 | x6 | x6 | x6 | x6 | x6 | B,6 | x6 | x6 | D2 x4 | x6 | B,6 | D2 x4 | x6 | x6 | %18
 x6 | F,6 | F,6 | x6 | x6 | x6 | x6 | x6 | x6 | x6 | x6 | x6 | x6 |] %31

